logo/haskell-icon.svg

<?xml version="1.0" encoding="UTF-8"?>
<svg width="256px" height="181px" viewBox="0 0 256 181" version="1.1" xmlns="http://www.w3.org/2000/svg" xmlns:xlink="http://www.w3.org/1999/xlink" preserveAspectRatio="xMidYMid">
    <g>
				<polygon fill="#453A62" points="0 180.591468 60.2352941 90.2969514 0 0 45.1764706 0 105.411765 90.2969514 45.1764706 180.591468"></polygon>
				<polygon fill="#5E5086" points="60.2352941 180.591468 120.470588 90.2969514 60.2352941 0 105.411765 0 225.877484 180.591468 180.705882 180.591468 143.061258 124.158612 105.40933 180.591468"></polygon>
				<path d="M205.803922,127.919667 L185.72549,97.8190601 L256,97.8190601 L256,127.922101 L205.803922,127.922101 L205.803922,127.919667 Z M175.686275,82.7748426 L155.607843,52.6742359 L256,52.6742359 L256,82.7748426 L175.686275,82.7748426 Z" fill="#8F4E8B"></path>
		</g>
</svg>

<svg viewBox="0 0 256 181" xmlns="http://www.w3.org/2000/svg"><path fill="#453A62" d="M0 180.59l60.23-90.3L-.01-.01l45.17 0 60.23 90.29 -60.24 90.29Z"/><path fill="#5E5086" d="M60.23 180.59l60.23-90.3L60.22-.01l45.17 0 120.46 180.59 -45.18 0 -37.65-56.44 -37.66 56.43Z"/><path fill="#8F4E8B" d="M205.8 127.91L185.72 97.8h70.27v30.1h-50.2v-.01Zm-30.12-45.15L155.6 52.65h100.39v30.1h-80.32Z"/></svg>
